svgs/thin/video.svg

<svg xmlns="http://www.w3.org/2000/svg" viewBox="0 0 576 512"><!--! Font Awesome Pro 6.6.0 by @fontawesome - https://fontawesome.com License - https://fontawesome.com/license (Commercial License) Copyright 2024 Fonticons, Inc. --><path d="M64 80c-26.5 0-48 21.5-48 48l0 256c0 26.5 21.5 48 48 48l256 0c26.5 0 48-21.5 48-48l0-74.9 0-106.2 0-74.9c0-26.5-21.5-48-48-48L64 80zM384 336.8l0 47.2c0 35.3-28.7 64-64 64L64 448c-35.3 0-64-28.7-64-64L0 128C0 92.7 28.7 64 64 64l256 0c35.3 0 64 28.7 64 64l0 47.2 0 27.7 0 106.2 0 27.7zm135.4 74.5L416 354.4l0-18.3 111.1 61.1c3.3 1.8 7 2.7 10.7 2.7c12.3 0 22.2-9.9 22.2-22.2l0-243.6c0-12.3-9.9-22.2-22.2-22.2c-3.7 0-7.4 .9-10.7 2.7L416 175.9l0-18.3 103.4-56.9c5.6-3.1 12-4.7 18.4-4.7c21.1 0 38.2 17.1 38.2 38.2l0 243.6c0 21.1-17.1 38.2-38.2 38.2c-6.4 0-12.8-1.6-18.4-4.7z"/></svg>

<svg xmlns="http://www.w3.org/2000/svg" viewBox="0 0 576 512"><!--! Font Awesome Pro 6.4.0 by @fontawesome - https://fontawesome.com License - https://fontawesome.com/license (Commercial License) Copyright 2023 Fonticons, Inc. --><path d="M64 80c-26.5 0-48 21.5-48 48V384c0 26.5 21.5 48 48 48H320c26.5 0 48-21.5 48-48V309.1 202.9 128c0-26.5-21.5-48-48-48H64zM384 336.8V384c0 35.3-28.7 64-64 64H64c-35.3 0-64-28.7-64-64V128C0 92.7 28.7 64 64 64H320c35.3 0 64 28.7 64 64v47.2 27.7V309.1v27.7zm135.4 74.5L416 354.4V336.1l111.1 61.1c3.3 1.8 7 2.7 10.7 2.7c12.3 0 22.2-9.9 22.2-22.2V134.2c0-12.3-9.9-22.2-22.2-22.2c-3.7 0-7.4 .9-10.7 2.7L416 175.9V157.6l103.4-56.9c5.6-3.1 12-4.7 18.4-4.7c21.1 0 38.2 17.1 38.2 38.2V377.8c0 21.1-17.1 38.2-38.2 38.2c-6.4 0-12.8-1.6-18.4-4.7z"/></svg>
